X:1
T:The Well-Tempered Clavier Part II Fuga XII
T:BWV 881
T:J. S. Bach
%%score { ( 1 3 ) | 2 }
L:1/8
M:2/4
K:Ab
V:1 treble nm="Harp"
V:3 treble 
V:2 bass 
V:1
 c | F/4E/4F/F Fd/B/ | =EE E/F/G/A/ | B/A/G/A/ B/d/c/B/ | A/G/F/G/ A/B/c/=d/ | e/=d/c/d/ e/g/f/e/ | %6
 =d/c/=B/=A/ G/A/B/c/ | =df ^g=B | ce gc' | dc' bd | ce ac | Ba gB | A/c/f/e/ d2- | d/c/B/A/ G2- | %14
 Gd c2- | cd c2- | cd c2- | cc ca | B/c/d/c/ B/c/d/c/ | BB Bg | A/B/c/B/ A/B/c/^A/ | AA Ad- | %22
 d/F/G/A/ B/c/d/B/ | c/d/B/c/ d/c/B/A/ | G/A/B/G/ Ee | A/4G/4A/A Af/d/ | GG G/A/B/c/ | %27
 d/c/B/c/ d/f/e/d/ | c/B/A/G/ A/B/c/=d/ | e3 e | a/g/a/b/ a/g/f/e/ | =d4- | d/c/=B/c/ =d/f/e/d/ | %33
 ee e2- | e4 | =dd d2- | d4 | cc cf | =B/c/ =d2- d | z/ G/c- c/c=B/ | c2 z c/^A/ | A2 z/ ^G/B/d/- | %42
 d/d/c/B/ g2- | g2- g=e | f z z2 | z2 z =a | be db- | bc'/b/ a/g/f/=e/ | f4- | fb/a/ g/f/=e/=d/ | %50
 =e/f/e/=d/ c/B/A/G/ | A/F/A/c/ f/c/B/A/ | B/G/B/=e/ g/f/e/=d/ | c/=d/=e/g/ c'/b/a/g/ | %54
 f/_g/f/e/ d/c/B/=A/ | BF d2- | d<d- d<d- | d<c- c<c- | c/B/=A/G/ A/B/c- | cB/=A/ Bd | Gc/=d/ =ef | %61
 gf =ef | g2- g/f/=e/f/ | g2- g/f/=e/f/ | b/f/=e/=d/ e/f/g- | gf/=e/ fg | aa a2- | a4 | gg g2- | %69
 g4 | f2 z f | e2 z f | BB B_g/e/ | =AA A/B/c/d/ | e/d/c/d/ e/_g/f/e/ | dd d z | dd d z | %77
 =E z z =e | fc ca | B/c/d/c/ B/c/d/c/ | BB Bg | A/B/c/B/ A/B/c/B/ | AA Af | G/A/B/A/ G/d/c/B/ | %84
 A>G A/4G/4A/4G/4A/4G/4F/ | !fermata!F3 z |] %86
V:2
 z | z4 | z4 | z4 | z4 | z4 | z4 | z4 | z4 | z4 | z4 | z z2 C | F,F, F,D/B,/ | =E,E, E,/F,/G,/A,/ | %14
 B,/A,/G,/A,/ B,/D/C/B,/ | A,/G,/F,/G,/ A,/C/B,/A,/ | G,/F,/=E,/F,/ G,/B,/A,/G,/ | %17
 F,/A,/C/F/ C/A,/F,/A,/ | D,F, D,B,, | E,/G,/B,/E/ B,/G,/E,/G,/ | C,E, C,A,, | %21
 D,/E,/F,/E,/ D,/C,/B,,/A,,/ | G,,B,, G,,E,, | A,,G,, F,,=D, | E,E,, z/ D/C/B,/ | %25
 C/E/C/A,/ F,/E/D/C/ | B,/D/B,/G,/ E,/C/B,/A,/ | G,/A,/G,/F,/ E,/D,/C,/B,,/ | A,,A, G,F, | %29
 C/B,/C/D/ C/B,/A,/G,/ | F,2 B,2- | B,A,/G,/ F,/E,/=D,/C,/ | =B,,=D, B,,G,, | %33
 C,/E,/G,/C/ G,/E,/C,/E,/ | A,,C, A,,F,, | B,,/=D,/F,/B,/ F,/D,/B,,/D,/ | G,,B,, G,,E,, | %37
 A,,/B,,/C,/B,,/ A,,/G,,/F,,/E,,/ | =D,,C, =B,,G,, | C,A,, F,,G,, | C,,2 z C | F,F, F,D/B,/ | %42
 =E,E, E,/F,/G,/A,/ | B,/A,/G,/A,/ B,/D/C/B,/ | A,/G,/F,/G,/ A,/B,/C/D/ | %45
[K:treble] E/D/C/D/ E/_G/F/E/ | D/C/B,/C/ D/E/F/G/ | A/B/A/G/ F/E/D/C/ | %48
 D/E/D/C/[K:bass] B,/A,/G,/F,/ | G,/A,/G,/F,/ =E,/=D,/C,/=B,,/ | C,C, C, z | C,C, C, z | %52
 C,C, C, z | z4 | D,4- | D,/E,/D,/C,/ B,,/A,,/_G,,/F,,/ | E,,E,, E,,E,/C,/ | =A,,A,, A,,^F,/E,/ | %58
 C,C, C,B,/=A,/ | B,4- | B,/G,/A,/C/ B,/A,/G,/F,/ | =E,/F,/G,/A,/ G,/F,/E,/=D,/ | C,C, C,B,/G,/ | %63
 =E,E, E,D/B,/ | G,G, G,[K:treble]F/=E/ | F4- | F/=E/F/G/ F/_E/D/C/ | DF DB, | E/D/E/F/ E/D/C/B,/ | %69
[K:bass] CE CA, | D/E/D/C/ B,/A,/G,/F,/ | G,/B,/=A,/G,/ F,/E,/D,/C,/ | D,2 z/ D,/E,/F,/ | %73
 _G, z z2 | z/ B,/=A,/G,/ F,/E,/D,/C,/ | B,,/C,/D,/C,/ B,,/A,,/G,,/F,,/ | %76
 G,,/A,,/B,,/A,,/ G,,/F,,/=E,,/=D,,/ | C,,=E,, G,,C,- | C,/F,,/A,,/C,/ F,/A,/G,/F,/ | DB, G,F, | %80
 C,,/=E,,/G,,/C,/ =E,/G,/F,/E,/ | CA, F,=E, | C,,/F,,/A,,/C,/ F,/A,/G,/F,/ | B,G, =E,C, | %84
 D,B,, C,C,, | !fermata!F,,3 z |] %86
V:3
 x | x4 | x4 | x4 | z2 z F | CC CA/F/ | =B,B, B,/C/=D/E/ | F/E/=D/E/ F/A/G/F/ | %8
 E/=D/C/D/ E/F/G/=A/ | B/A/G/F/ G/B/A/G/ | A/B/c/B/ A/G/F/E/ | =D/F/=E/D/ E/G/F/E/ | %12
 F z z/ c/B/A/ | G2 z/ F/=E/=D/ | =E3 E | F2 F/A/G/F/ | =E/G/B- B/G/F/E/ | AA A2- | A4 | GG G2- | %20
 G4 | FF F2 | E z z2 | x4 | x4 | x4 | x4 | x4 | z2 z A | EE Ec/A/ |[I:staff +1] =DD D/E/F/G/ | %31
[I:staff -1] A/G/F/G/ A/c/B/A/ | G4- | GG Ge | F/G/A/G/ F/G/A/G/ | FF F=d | E/F/G/F/ E/F/G/F/ | %37
 EE EA- | A>A G/F/E/=D/ | E>E =DF- | F/F/=E/=D/ E<G- | G/G/F/=E/ F2 | G2 z =e | dB G2 | %44
 z/ B/A/G/ F/G/A/B/ | ce _g2- | g=A Bd | c z z2 | z A dc | B z z2 | z[I:staff +1] G,/A,/ B,/G,/C | %51
 F,F, F,D/B,/ | =E,E, E,/F,/G,/A,/ | B,/A,/G,/A,/ B,/D/C/B,/ | A,=A, B,C |[I:staff -1] D z z B/A/ | %56
 _GG/F/ GG/F/ | _GE/D/ EE/D/ | E4- | E/[I:staff +1]C/D/F/ E/D/C/B,/ |[I:staff -1] =EF GA | %61
 BB/A/ B2- | B/=e/d/c/ B2- | B/=e/d/c/ B2 | z2 B2- | B/[I:staff +1]G/A/d/ c/B/A/G/ | %66
 F[I:staff -1]c ca | B/c/d/c/ B/c/d/c/ | BB Bg | A/B/c/B/ A/B/c/B/ | AA d2- | dc/B/ =A z | %72
 z/[I:staff +1] F,/G,/=A,/ B,[I:staff -1] z | z/ C/E/D/ C/B,/=A,/G,/ | %74
[I:staff +1] F,/[I:staff -1] z/ z z c | FF Fd/B/ | =EE E/F/G/A/ | B/A/G/A/ B/d/c/B/ | AA A2- | A4 | %80
 GG G2- | G4 | FF F2- | F=E z E | F2 =E2 | F3 z |] %86

